modules/zondicons/icons/lock-closed.svg

<?xml version="1.0" encoding="UTF-8" standalone="no"?>
<svg width="20px" height="20px" viewBox="0 0 20 20" version="1.1" xmlns="http://www.w3.org/2000/svg" xmlns:xlink="http://www.w3.org/1999/xlink">
    <!-- Generator: Sketch 3.7.2 (28276) - http://www.bohemiancoding.com/sketch -->
    <title>lock-closed</title>
    <desc>Created with Sketch.</desc>
    <defs></defs>
    <g id="Page-1" stroke="none" stroke-width="1" fill="none" fill-rule="evenodd">
        <g id="lock-closed" fill="#000000">
            <path d="M11,14.7324356 C11.5978014,14.3866262 12,13.7402824 12,13 C12,11.8954305 11.1045695,11 10,11 C8.8954305,11 8,11.8954305 8,13 C8,13.7402824 8.40219863,14.3866262 9,14.7324356 L9,17 L11,17 L11,14.7324356 Z M13,6 C13,4.34314575 11.6568542,3 10,3 C8.34314575,3 7,4.34314575 7,6 L7,8 L13,8 L13,6 Z M4,8 L4,6 C4,2.6862915 6.6862915,0 10,0 C13.3137085,0 16,2.6862915 16,6 L16,8 L17.0049107,8 C18.1067681,8 19,8.90195036 19,10.0085302 L19,17.9914698 C19,19.1007504 18.1073772,20 17.0049107,20 L2.99508929,20 C1.8932319,20 1,19.0980496 1,17.9914698 L1,10.0085302 C1,8.8992496 1.8926228,8 2.99508929,8 L4,8 Z" id="Combined-Shape"></path>
        </g>
    </g>
</svg>

<svg width="20" height="20" viewBox="0 0 20 20" xmlns="http://www.w3.org/2000/svg"><path d="M11 14.732a2 2 0 1 0-2 0V17h2v-2.268zM13 6a3 3 0 0 0-6 0v2h6V6zM4 8V6a6 6 0 1 1 12 0v2h1.005C18.107 8 19 8.902 19 10.009v7.982c0 1.11-.893 2.009-1.995 2.009H2.995A2.004 2.004 0 0 1 1 17.991V10.01C1 8.899 1.893 8 2.995 8H4z" fill="#000" fill-rule="evenodd"/></svg>
